X:1753559315
T:Salt Creek
C:Trad.
R:reel
M:4/4
N:Arranged by Cam Cross ~ 7/25
K:A
EF GEFG |: [P:A-part] "A" A2 ^GA A2 AB | "A" cABc "D" d2 dA | "G" BA=GA BAGA | 
"G" BA=GF "E" E2 EF | "A" A2 ^GA A2 AB | "A" cABc "D" d2 ef |1 "A" =gfeg fedf | 
"E" edcB "A" A2 E2 :||2 "A" =geae gged | "E" BAdB "A" A2 E2 || 
[P:B-part] "A" a2 aa a2 ab | "A" c'abc' a2 e2 | "G" =g2 gg g2 ga | "G" b=gab g2 e2 | 
"A" a2 aa a2 ab | "A" c'abc' a2 ef | "A" =gfga gfef | "E" edcB "A" A4 | 
%
%%text Chords:
%%text A A/D G G/E
%%text A A/D A E/A


%abc-2.1
%%titlefont      Times-Bold 24
%%subtitlefont   Times-Italics 18
%%composerfont   Times-Italics
%%gchordfont     Courier
%%partsfont      Helvetica
%%textfont       Courier
